icons-rebrand/svg/battery-high-light.svg

<svg width="32" height="32" viewBox="0 0 32 32" fill="none" xmlns="http://www.w3.org/2000/svg">
<path d="M25 6.5H11C9.80693 6.50132 8.66311 6.97585 7.81948 7.81948C6.97585 8.66311 6.50132 9.80693 6.5 11V12.5H5C4.33712 12.5005 3.70154 12.7641 3.23282 13.2328C2.76409 13.7015 2.50053 14.3371 2.5 15V17C2.50053 17.6629 2.76409 18.2985 3.23282 18.7672C3.70154 19.2359 4.33712 19.4995 5 19.5H6.5V21C6.50132 22.1931 6.97585 23.3369 7.81948 24.1805C8.66311 25.0241 9.80693 25.4987 11 25.5H25C26.1931 25.4987 27.3369 25.0241 28.1805 24.1805C29.0241 23.3369 29.4987 22.1931 29.5 21V11C29.4987 9.80693 29.0241 8.66311 28.1805 7.81948C27.3369 6.97585 26.1931 6.50132 25 6.5ZM6.5 18.5H5C4.60234 18.4995 4.22111 18.3413 3.93992 18.0601C3.65873 17.7789 3.50053 17.3977 3.5 17V15C3.50053 14.6023 3.65873 14.2211 3.93992 13.9399C4.22111 13.6587 4.60234 13.5005 5 13.5H6.5V18.5ZM28.5 21C28.4987 21.9279 28.1295 22.8173 27.4734 23.4734C26.8173 24.1295 25.9279 24.4987 25 24.5H11C10.0721 24.4989 9.18244 24.1299 8.5263 23.4737C7.87015 22.8176 7.50106 21.9279 7.5 21V11C7.50106 10.0721 7.87015 9.18244 8.5263 8.5263C9.18244 7.87015 10.0721 7.50106 11 7.5H25C25.9279 7.50106 26.8176 7.87015 27.4737 8.5263C28.1299 9.18244 28.4989 10.0721 28.5 11V21Z" fill="#0F0F0F"/>
<path d="M13 10.5C12.8674 10.5 12.7402 10.5527 12.6464 10.6464C12.5527 10.7402 12.5 10.8674 12.5 11V21C12.5 21.1326 12.5527 21.2598 12.6464 21.3536C12.7402 21.4473 12.8674 21.5 13 21.5C13.1326 21.5 13.2598 21.4473 13.3536 21.3536C13.4473 21.2598 13.5 21.1326 13.5 21V11C13.5 10.8674 13.4473 10.7402 13.3536 10.6464C13.2598 10.5527 13.1326 10.5 13 10.5ZM18 10.513C17.8674 10.513 17.7402 10.5657 17.6464 10.6594C17.5527 10.7532 17.5 10.8804 17.5 11.013V21.013C17.5 21.1456 17.5527 21.2728 17.6464 21.3666C17.7402 21.4603 17.8674 21.513 18 21.513C18.1326 21.513 18.2598 21.4603 18.3536 21.3666C18.4473 21.2728 18.5 21.1456 18.5 21.013V11.013C18.5 10.8804 18.4473 10.7532 18.3536 10.6594C18.2598 10.5657 18.1326 10.513 18 10.513ZM23 10.513C22.8674 10.513 22.7402 10.5657 22.6464 10.6594C22.5527 10.7532 22.5 10.8804 22.5 11.013V21.013C22.5 21.1456 22.5527 21.2728 22.6464 21.3666C22.7402 21.4603 22.8674 21.513 23 21.513C23.1326 21.513 23.2598 21.4603 23.3536 21.3666C23.4473 21.2728 23.5 21.1456 23.5 21.013V11.013C23.5 10.8804 23.4473 10.7532 23.3536 10.6594C23.2598 10.5657 23.1326 10.513 23 10.513Z" fill="#0F0F0F"/>
</svg>

<svg width="32" height="32" viewBox="0 0 32 32" fill="none" xmlns="http://www.w3.org/2000/svg"><path d="M25 6.5H11A4.505 4.505 0 0 0 6.5 11v1.5H5A2.502 2.502 0 0 0 2.5 15v2A2.502 2.502 0 0 0 5 19.5h1.5V21a4.505 4.505 0 0 0 4.5 4.5h14a4.505 4.505 0 0 0 4.5-4.5V11A4.505 4.505 0 0 0 25 6.5zm-18.5 12H5A1.502 1.502 0 0 1 3.5 17v-2A1.502 1.502 0 0 1 5 13.5h1.5v5zm22 2.5a3.505 3.505 0 0 1-3.5 3.5H11A3.504 3.504 0 0 1 7.5 21V11A3.504 3.504 0 0 1 11 7.5h14a3.504 3.504 0 0 1 3.5 3.5v10z" fill="#0F0F0F"/><path d="M13 10.5a.5.5 0 0 0-.5.5v10a.5.5 0 1 0 1 0V11a.5.5 0 0 0-.5-.5zM18 10.513a.5.5 0 0 0-.5.5v10a.5.5 0 1 0 1 0v-10a.5.5 0 0 0-.5-.5zM23 10.513a.5.5 0 0 0-.5.5v10a.5.5 0 1 0 1 0v-10a.5.5 0 0 0-.5-.5z" fill="#0F0F0F"/></svg>
